icons/lines/programming-arrows.svg

<svg xmlns="http://www.w3.org/2000/svg" width="24" height="24" viewBox="0 0 24 24" fill="none" stroke="currentColor" stroke-width="2" stroke-linecap="round" stroke-linejoin="round" >
  <path d="M19 16V6.5C19 5.4 18.1 4.5 17 4.5H11.5"/>
  <path d="M14 2L11 4.5L14 7"/>
  <path d="M19 22C20.6569 22 22 20.6569 22 19C22 17.3431 20.6569 16 19 16C17.3431 16 16 17.3431 16 19C16 20.6569 17.3431 22 19 22Z"/>
  <path d="M5 8V17.5C5 18.6 5.9 19.5 7 19.5H12.5"/>
  <path d="M10 22L13 19.5L10 17"/>
  <path d="M5 8C6.65685 8 8 6.65685 8 5C8 3.34315 6.65685 2 5 2C3.34315 2 2 3.34315 2 5C2 6.65685 3.34315 8 5 8Z"/>
  </svg>

<svg xmlns="http://www.w3.org/2000/svg" width="24" height="24" viewBox="0 0 24 24" fill="none" stroke="currentColor" stroke-width="2" stroke-linecap="round" stroke-linejoin="round">
  <path d="m10 22 3-2.5-3-2.5" />
  <path d="m14 2-3 2.5L14 7" />
  <path d="M19 16V6.5a2 2 0 0 0-2-2h-5.5" />
  <path d="M5 8v9.5a2 2 0 0 0 2 2h5.5" />
  <circle cx="19" cy="19" r="3" />
  <circle cx="5" cy="5" r="3" />
</svg>
